svg/OSM-icons/leisure #21610b °ffffff !label=enleisure,deFreizeit/21160;leisure=pitch;!name=;#sport=korfball;[addr];[contact];!label=enkorfball,deKorbball.svg

<svg xmlns="http://www.w3.org/2000/svg" viewBox="0 0 580 580" enable-background="new 0 0 580 580"><path fill="#111" stroke="#eee" stroke-width="3.408" d="m66.28 1.768c-41.34 0-64.57 21.371-64.57 65.04v450.12c0 40.844 20.894 62.23 62.19 62.23h452.02c41.31 0 62.23-20.316 62.23-62.23v-450.12c0-42.601-20.923-65.04-63.52-65.04-.003 0-448.49-.143-448.35 0z"/><g fill="#fff"><path d="m249.72 41.707c-53.18 0-96.3 6.532-96.3 14.59v10.213c-12.596 4-33.27 12.838-54.47 31.612 0 0-15.563 10.7-14.591 107.97h10.582v332.2h33.562v-332.2h12.272v-32.1c0 0-6.786-11.768 17.194-14.04 12.394 5.89 48.775 10.153 91.75 10.153 53.18 0 96.3-6.531 96.3-14.591v-99.21c.0001-8.06-43.11-14.59-96.3-14.59"/><path d="m398.6 260.52c-53.588 0-97.08 41.42-97.08 92.45s43.495 92.44 97.08 92.44 97.08-41.41 97.08-92.44-43.496-92.45-97.08-92.45m-7.285 7.681l20.254 16.746-5.356 21.372-22.498 10.453-28.464-7.545-4.229-17.4 10.916-16.476 29.377-7.15m50.43 8.93l26.07 21.382-7.342 26.738-23.829 3.563-22.295-22.295 3.563-20.252 23.83-9.136m-93.84 3.97c-.927 3.641-1.858 7.288-2.719 10.928l-13.1 3.371c1.059-1.918 2.392-3.701 3.98-5.355 1.39-1.788 2.843-3.518 4.895-4.907 2.053-1.588 4.102-2.845 6.948-4.04m4.172 35.09l26.26 7.34 6.688 28.453-27.393 21.18-23.829-.666-6.02-31.633 24.29-24.674m111.7 16.14l13.362 22.51-18.46 30.504-23.16-2.188-8.47-19.385 14.232-27.404 22.499-4.04m-157.17 7.68l13.838 4.432 7.341 30.709-8.933 16.08c-2.116.857-4.106-1.393-6.224-6.02-2.316-5.03-5.426-15.16-6.484-22.701-.993-7.612-.927-15.02.462-22.499m183.05 12.371c.066 7.678-.535 14.164-1.792 20.717-1.522 6.482-3.774 12.377-6.02 17.14-2.248 4.498-4.305 7.684-6.688 9.801l-10.713-12.451 18.72-31.631 6.495-3.577m-99.34 5.098l29.851 7.814 9.529 22.43-16.477 21.643-37.19-7.805-12.247-24.494 26.535-19.588m-17.333 49.631l39.447 6.957 11.312 17.334-2.842 7.611c-5.493.799-11.06 1.391-16.95 1.523-6.088.133-12.57-.006-18.461-.666-6.286-.926-12.11-2.584-17.208-4.24-5.096-1.785-8.998-3.766-12.439-6.213l-.463-8.932 17.604-13.374"/></g></svg>

<?xml version="1.0" encoding="utf-8"?>
<!-- Generator: Adobe Illustrator 15.0.0, SVG Export Plug-In . SVG Version: 6.00 Build 0)  -->
<!DOCTYPE svg PUBLIC "-//W3C//DTD SVG 1.1//EN" "http://www.w3.org/Graphics/SVG/1.1/DTD/svg11.dtd">
<svg version="1.1" xmlns="http://www.w3.org/2000/svg" xmlns:xlink="http://www.w3.org/1999/xlink" x="0px" y="0px" width="580px"
	 height="580px" viewBox="0 0 580 580" enable-background="new 0 0 580 580" xml:space="preserve">
<g id="Layer_2">
	<g id="g1327">
		<path id="path1329" fill="#111111" stroke="#EEEEEE" stroke-width="3.408" d="M66.275,1.768
			c-41.335,0-64.571,21.371-64.571,65.036v450.123c0,40.844,20.894,62.229,62.192,62.229H515.92
			c41.307,0,62.229-20.316,62.229-62.229V66.804c0-42.601-20.923-65.036-63.522-65.036C514.624,1.768,66.133,1.625,66.275,1.768z"/>
	</g>
</g>
<g id="svg2" inkscape:output_extension="org.inkscape.output.svg.inkscape" xmlns:cc="http://creativecommons.org/ns#" xmlns:svg="http://www.w3.org/2000/svg" xmlns:sodipodi="http://sodipodi.sourceforge.net/DTD/sodipodi-0.dtd" xmlns:rdf="http://www.w3.org/1999/02/22-rdf-syntax-ns#" xmlns:dc="http://purl.org/dc/elements/1.1/" xmlns:inkscape="http://www.inkscape.org/namespaces/inkscape" sodipodi:docname="waste_bin.svg" inkscape:version="0.46" sodipodi:version="0.32">
	<g>
		<path fill="#FFFFFF" d="M249.72,41.707c-53.183,0-96.296,6.532-96.296,14.59V66.51c-12.596,4.001-33.273,12.838-54.471,31.612
			c0,0-15.563,10.7-14.591,107.969h10.582v332.202h33.562V206.091h12.272v-32.099c0,0-6.786-11.768,17.194-14.044
			c12.394,5.89,48.775,10.153,91.748,10.153c53.183,0,96.296-6.531,96.296-14.591V56.297
			C346.017,48.238,302.903,41.707,249.72,41.707z"/>
		<path id="path10456" fill="#FFFFFF" d="M398.597,260.518c-53.588,0-97.085,41.419-97.085,92.451s43.495,92.439,97.085,92.439
			s97.085-41.408,97.085-92.439S452.186,260.518,398.597,260.518z M391.312,268.199l20.254,16.746l-5.356,21.372l-22.498,10.453
			l-28.464-7.545l-4.229-17.4l10.916-16.476L391.312,268.199z M441.743,277.129l26.073,21.382l-7.342,26.738l-23.829,3.563
			l-22.295-22.295l3.563-20.252L441.743,277.129z M347.906,281.099c-0.927,3.641-1.858,7.288-2.719,10.928l-13.104,3.371
			c1.059-1.918,2.392-3.701,3.98-5.355c1.39-1.788,2.843-3.518,4.895-4.907C343.011,283.548,345.06,282.291,347.906,281.099z
			 M352.078,316.184l26.265,7.34l6.688,28.453l-27.393,21.18l-23.829-0.666l-6.021-31.633L352.078,316.184z M463.779,332.32
			l13.362,22.51l-18.46,30.504l-23.163-2.188l-8.47-19.385l14.232-27.404L463.779,332.32z M306.608,340l13.838,4.432l7.341,30.709
			l-8.933,16.082c-2.116,0.857-4.106-1.393-6.224-6.023c-2.316-5.029-5.426-15.156-6.484-22.701
			C305.153,354.887,305.219,347.479,306.608,340z M489.659,352.371c0.066,7.678-0.535,14.164-1.792,20.717
			c-1.522,6.482-3.774,12.377-6.022,17.141c-2.248,4.498-4.305,7.684-6.688,9.801l-10.713-12.451l18.72-31.631L489.659,352.371z
			 M390.319,357.469l29.851,7.814l9.529,22.43l-16.477,21.643l-37.191-7.805l-12.247-24.494L390.319,357.469z M372.986,407.1
			l39.447,6.957l11.312,17.334l-2.842,7.611c-5.493,0.799-11.061,1.391-16.95,1.523c-6.088,0.133-12.57-0.006-18.461-0.666
			c-6.286-0.926-12.113-2.584-17.208-4.24c-5.096-1.785-8.998-3.766-12.439-6.213l-0.463-8.932L372.986,407.1z"/>
	</g>
</g>
</svg>
